X: 1
T: Harry Bradshaw's
M: 4/4
L: 1/8
R: reel
K: Amaj
F|EC C/C/C ECB,C|A,B,CE A3 B|ce e/e/e feef|ecAc BAFA|
EC C/C/C ECB,C|A,B,CE A3 B|ce e/e/e feef|ecBd cAA:|
a|fe e/e/e feef|ecBc effa|fe e/e/e feef|ecAB cBBa|
fe e/e/e feef|ecBc effg|abag fefg|afec B3:|
